X: 128002
T: A LIFE ON THE OCEAN WAVE
%R: jig
B: James Kerr "Merry Melodies" v.1 p.28 s.0 #2
Z: 2016 John Chambers <jc:trillian.mit.edu>
M: 6/8
L: 1/8
K: D
uA |\
vABc ud2ue | f3- fde | ufef vg2vf | ue3- e2uc |\
vA2c e2f | g3- gfg | b2a gfe | d3- d2 H:|
vd/c/ |\
vB2vc ud2ue | f3- fdc | uB2uc vd2ve | uf3- f2uf |\
fff fff | fff fff | g3- (g/f/e/d/c/B/) | Ace "_D.C."a2 |]

%%sep 1 1 500
%%sep 1 1 500

